packages/core/src/svgs/tokens/mono/DEXTF.svg

<svg width="24" height="24" viewBox="0 0 24 24" fill="none" xmlns="http://www.w3.org/2000/svg">
<path d="M2 19.6398V4.36C2 3.05334 3.06667 2 4.39999 2H11.8466C17.4466 2 21.9999 6.47997 21.9999 11.9999C21.9999 17.5199 17.4532 21.9999 11.8466 21.9999H4.39332C4.08109 22.0026 3.77141 21.9435 3.48203 21.8263C3.19264 21.709 2.92924 21.5357 2.7069 21.3166C2.48457 21.0974 2.30769 20.8364 2.18639 20.5486C2.06508 20.261 2.00174 19.9522 2 19.6398ZM3.69332 13.46L6.94664 14.1667L13.9999 8.38664V17.4865L16.6666 19.7666V5.73331L14.8732 4.75332L3.69332 13.4533V13.46Z" fill="white"/>
</svg>

<svg xmlns="http://www.w3.org/2000/svg" width="24" height="24" fill="none" viewBox="0 0 24 24">
    <path fill="#fff" d="M2 19.64V4.36C2 3.053 3.067 2 4.4 2h7.447C17.447 2 22 6.48 22 12s-4.547 10-10.153 10H4.393A2.373 2.373 0 0 1 2 19.64m1.693-6.18 3.254.707L14 8.387v9.1l2.667 2.28V5.733l-1.794-.98-11.18 8.7z"/>
</svg>
